X: 1
T: The Blackbird
R: hornpipe
M: 4/4
L: 1/8
K: Dmaj
d-c|B2d2 c2B2|ABAG ABcA|~d-cde dcAF|GAGF D2D-E|
F2F-G A2f-e|~d-cde dcAF|GAGF D2D2|D6:|
|:d-e|f2d2 f2g2|abag fgaf|g2{a}g-f gbaf|gagf d2d-e|
f2de f2g2|abag fgaf|gagf d2d2|defg abag|
fgaf gage|f2ed cA2B|c2de defg|a4 A3G|
FGAB =c3e|d^cAF GAGF|D2D2 D2:||


Tune 1104	Setting 23129

